X: 4119
T: CRAIGENDORAN
R: Strathspey.
%R: strathspey
B: James Kerr "Merry Melodies" v.4 p.15 #119
Z: 2016 John Chambers <jc:trillian.mit.edu>
M: C
L: 1/8
K: G
|:\
d<d B>d e>dB>d | g>ab>a g3 d |\
e<e c>e d<d B>d |[1 c>BA>G F>ED2 :|[2 c<A d>F G3 ||
|: d |\
g<g b>a g>dB>d | G>DB,>D G,3 d |\
e<e a>b c'>ba>g |[1 (3fga (3gfe d3 :|[2 (3fed (3cBA G3 |]

%%sep 1 1 500
%%sep 1 1 500

